static/dist/images/icons/shopping-basket.svg

<svg xmlns="http://www.w3.org/2000/svg" viewBox="0 0 20 20"><path d="M18.399 7h-5.007L11.58 8.812a2.384 2.384 0 0 1-1.696.702c-.642 0-1.244-.25-1.698-.703a2.387 2.387 0 0 1-.703-1.695c0-.039.01-.077.011-.116H1.6a.6.6 0 0 0-.6.6V10h18V7.6a.6.6 0 0 0-.601-.6zm-7.631.999l5.055-5.055a.6.6 0 0 0 .002-.849l-.92-.92a.603.603 0 0 0-.85 0L9 6.231a1.25 1.25 0 0 0 1.768 1.768zm-6.945 9.272c.097.401.515.729.927.729h10.5c.412 0 .83-.328.927-.729L17.7 11H2.3l1.523 6.271z"/></svg>

<?xml version="1.0" encoding="utf-8"?>
<!-- Generator: Adobe Illustrator 18.1.0, SVG Export Plug-In . SVG Version: 6.00 Build 0)  -->
<!DOCTYPE svg PUBLIC "-//W3C//DTD SVG 1.1//EN" "http://www.w3.org/Graphics/SVG/1.1/DTD/svg11.dtd">
<svg version="1.1" id="Shopping_basket" xmlns="http://www.w3.org/2000/svg" xmlns:xlink="http://www.w3.org/1999/xlink" x="0px"
	 y="0px" viewBox="0 0 20 20" enable-background="new 0 0 20 20" xml:space="preserve">
<path d="M18.399,7h-5.007l-1.812,1.812c-0.453,0.453-1.056,0.702-1.696,0.702c-0.642,0-1.244-0.25-1.698-0.703
	C7.734,8.359,7.484,7.757,7.483,7.116c0-0.039,0.01-0.077,0.011-0.116H1.6C1.268,7,1,7.268,1,7.6V10h18V7.6
	C19,7.268,18.73,7,18.399,7z M10.768,7.999l5.055-5.055c0.235-0.234,0.237-0.613,0.002-0.849l-0.92-0.92
	c-0.234-0.234-0.614-0.233-0.85,0L9,6.231c-0.488,0.488-0.488,1.28,0,1.768C9.488,8.486,10.279,8.487,10.768,7.999z M3.823,17.271
	C3.92,17.672,4.338,18,4.75,18h10.5c0.412,0,0.83-0.328,0.927-0.729L17.7,11H2.3L3.823,17.271z"/>
</svg>
